!!!COM:	Johannes Ockeghem
!!!CDT:	~1425-1497/02/06
!!!OTL:	Prenez sur moy
!!!AGN:	Chanson
!!!SCT:	Ock3015
!!!SCA:	Ock3015
!!!voices:	3
**kern	**text	**kern	**text	**kern	**text
*staff3	*staff3	*staff2	*staff2	*staff1	*staff1
*Ivox	*	*Ivox	*	*Ivox	*
*I"1	*	*I"2	*	*I"3	*
*I'1	*	*I'2	*	*I'3	*
*clefGv2	*	*clefGv2	*	*clefG2	*
*k[]	*	*k[]	*	*k[]	*
*M3/1	*	*M3/1	*	*M3/1	*
*met(O)	*	*met(O)	*	*met(O)	*
!!incipit: 5
=1-	=1-	=1-	=1-	=1-	=1-
!!Original sources lack mensuration signs
!LO:TX:Z=12:t=3-ex-1 canon at the upper fourth	!	!	!	!	!
1.A	Pre-	0.r	.	0.r	.
2B\	-nez	.	.	.	.
1c	sur	.	.	.	.
=2	=2	=2	=2	=2	=2
1.d	moi	1.d	Pre-	0.r	.
2c\	vost-	2e\	-nez	.	.
1d	-re'ex-	1f	sur	.	.
=3	=3	=3	=3	=3	=3
1.e	-em-	1.g	moi	1.g	Pre-
4d\	.	2f\	vost-	2a/	-nez
4c\	.	.	.	.	.
1B	.	1g	-re'e-	1b	sur
=4	=4	=4	=4	=4	=4
1A	-ple	1.a	-xem-	1.cc	moi
1r	.	.	.	.	.
.	.	4g\	.	2b\	vost-
.	.	4f\	.	.	.
1A	vost-	1e	.	1cc	-re'e-
=5	=5	=5	=5	=5	=5
2B\	.	1d	-ple	1.dd	-xem-
1G	.	.	.	.	.
.	.	1r	.	.	.
2E/	-re'ex-	.	.	4cc\	.
.	.	.	.	4b\	.
1F	-em-	1d	vost-	1a	.
=6	=6	=6	=6	=6	=6
1E	-ple	2e\	.	1g	-ple
.	.	1c	.	.	.
2e\	a-	.	.	1r	.
1e	-mou-	2A/	-re'e-	.	.
.	.	1B	-xem-	1g	vost-
2d\	.	.	.	.	.
=7	=7	=7	=7	=7	=7
2c\	.	1A	-ple	2a/	.
1A	.	.	.	1f	.
.	.	2a\	a-	.	.
2d\	.	1a	-mou-	2d/	-re'e-
2c\	.	.	.	1e	-xem-
2B\	.	2g\	.	.	.
=8	=8	=8	=8	=8	=8
1d	.	2f\	.	1d	-ple
.	.	1d	.	.	.
2B\	.	.	.	2dd\	a-
2G/	.	2g\	.	1dd	-mou-
1A	.	2f\	.	.	.
.	.	2e\	.	2cc\	.
=9	=9	=9	=9	=9	=9
1G	-reux:	1g	.	2b\	.
.	.	.	.	1g	.
1r	.	2e\	.	.	.
.	.	2c\	.	2cc\	.
2G/	Com-	1d	.	2b\	.
2F/	.	.	.	2a/	.
=10	=10	=10	=10	=10	=10
2.A/	-men-	1c	-reux:	1cc	.
4G/	.	.	.	.	.
2F/	.	1r	.	2a/	.
2D/	.	.	.	2f/	.
1E	-ce-	2c\	Com-	1g	.
.	.	2B\	.	.	.
=11	=11	=11	=11	=11	=11
1D	-ment	2.d\	-men-	1f	-reux:
.	.	4c\	.	.	.
2r	.	2B\	.	1r	.
2d\	d'a-	2G/	.	.	.
2c\	.	1A	-ce-	2f/	Com-
[2e\	.	.	.	2e/	.
=12	=12	=12	=12	=12	=12
2e\]	.	1G	-ment	2.g/	-men-
2d\	.	.	.	.	.
.	.	.	.	4f/	.
1e	-mours	2r	.	2e/	.
.	.	2g\	d'a-	2c/	.
2r	.	2f\	.	1d	-ce-
2d\	est	[2a\	.	.	.
=13	=13	=13	=13	=13	=13
2e\	sa-	2a\]	.	1c	-ment
1c	.	2g\	.	.	.
.	.	1a	-mours	2r	.
2A/	.	.	.	2cc\	d'a-
1B	-vou-	2r	.	2b\	.
.	.	2g\	est	[2dd\	.
=14	=14	=14	=14	=14	=14
1A	-reux,	2a\	sa-	2dd\]	.
.	.	1f	.	2cc\	.
2r	.	.	.	1dd	-mours
2B\	Et	2d\	.	.	.
2c\	le	1e	-vou-	2r	.
2A/	mo-	.	.	2cc\	est
=15	=15	=15	=15	=15	=15
4B\	-yen	1d	-reux,	2dd\	sa-
4A/	.	.	.	.	.
4G/	.	.	.	1b	.
4F/	.	.	.	.	.
1E	plain	2r	.	.	.
.	.	2e\	Et	2g/	.
1D	de	2f\	le	1a	-vou-
.	.	2d\	mo-	.	.
=16	=16	=16	=16	=16	=16
2G/	pai-	4e\	-yen	1g	-reux,
.	.	4d\	.	.	.
2E/	.	4c\	.	.	.
.	.	4B\	.	.	.
1F	-ne	1A	plain	2r	.
.	.	.	.	2a/	Et
2r	.	1G	de	2b\	le
[2E/	et	.	.	2g/	mo-
=17	=17	=17	=17	=17	=17
2E/]	.	2c\	pai-	4a/	-yen
.	.	.	.	4g/	.
2F/	.	2A/	.	4f/	.
.	.	.	.	4e/	.
1G	tris-	1B	-ne	1d	plain
1A	.	2r	.	1c	de
.	.	[2A/	et	.	.
=18	=18	=18	=18	=18	=18
2F/	-tes-	2A/]	.	2f/	pai-
1G	.	2B\	.	2d/	.
.	.	1c	tris-	1e	-ne
2E/	.	.	.	.	.
1D	-se.	1d	.	2r	.
.	.	.	.	[2d/	et
=19	=19	=19	=19	=19	=19
1r	.	2B\	-tes-	2d/]	.
.	.	1c	.	2e/	.
1A	Et	.	.	1f	tris-
.	.	2A/	.	.	.
1B	la	1G	-se.	1g	.
=20	=20	=20	=20	=20	=20
2c\	fin	1r	.	2e/	-tes-
2d\	.	.	.	1f	.
1B	.	1d	Et	.	.
.	.	.	.	2d/	.
2A/	est	1e	la	1c	-se.
2c\	.	.	.	.	.
=21	=21	=21	=21	=21	=21
2d\	d'a-	2f\	fin	1r	.
2.e\	-voir	2g\	.	.	.
.	.	1e	.	1g	Et
4B\	.	.	.	.	.
2c\	.	.	.	.	.
2r	.	2d\	est	1a	la
2d\	plai-	2f\	.	.	.
=22	=22	=22	=22	=22	=22
2B\	.	2g\	d'a-	2b\	fin
2A/	.	2.a\	-voir	2cc\	.
1d	-sant	.	.	1a	.
.	.	4e\	.	.	.
.	.	2f\	.	.	.
1G	mais-	2r	.	2g/	est
.	.	2g\	plai-	2b\	.
=23	=23	=23	=23	=23	=23
2A/	-tres-	2e\	.	2cc\	d'a-
1B	.	2d\	.	2.dd\	-voir
.	.	1g	-sant	.	.
.	.	.	.	4a/	.
2G/	.	.	.	2b\	.
1A	.	1c	mais-	2r	.
.	.	.	.	2cc\	plai-
=24	=24	=24	=24	=24	=24
2F/	.	2d\	-tres-	2a/	.
2G/	.	1e	.	2g/	.
4A/	.	.	.	1cc	-sant
4G/	.	.	.	.	.
4F/	.	2c\	.	.	.
4E/	.	.	.	.	.
1D	.	1d	.	1f	mais-
=25	=25	=25	=25	=25	=25
2G/	.	2B\	.	2g/	-tres-
2F/	.	2c\	.	1a	.
1D	-se,	4d\	.	.	.
.	.	4c\	.	.	.
.	.	4B\	.	2f/	.
.	.	4A/	.	.	.
2r	.	1G	.	1g	.
2d\	Mais	.	.	.	.
=26	=26	=26	=26	=26	=26
2e\	.	2c\	.	2e/	.
2d\	.	2B\	.	2f/	.
1B	au	1G	-se,	4g/	.
.	.	.	.	4f/	.
.	.	.	.	4e/	.
.	.	.	.	4d/	.
2A/	sail-	2r	.	1c	.
[2c\	.	2g\	Mais	.	.
=27	=27	=27	=27	=27	=27
4c\]	.	2a\	.	2f/	.
4d\	.	.	.	.	.
1e	.	2g\	.	2e/	.
.	.	1e	au	1c	-se,
2c\	.	.	.	.	.
2d\	.	2d\	sail-	2r	.
2A/	.	[2f\	.	2cc\	Mais
=28	=28	=28	=28	=28	=28
2B\	.	4f\]	.	2dd\	.
.	.	4g\	.	.	.
4c\	.	1a	.	2cc\	.
2d\	.	.	.	.	.
.	.	.	.	1a	au
4c\	.	.	.	.	.
2A/	.	2f\	.	.	.
1B	-lir	2g\	.	2g/	sail-
.	.	2d\	.	[2b\	.
=29	=29	=29	=29	=29	=29
2A/	sont	2e\	.	4b\]	.
.	.	.	.	4cc\	.
2G/	.	4f\	.	1dd	.
.	.	2g\	.	.	.
1B	.	.	.	.	.
.	.	4f\	.	.	.
.	.	2d\	.	2b\	.
2A/	les	1e	-lir	2cc\	.
2E/	.	.	.	2g/	.
=30	=30	=30	=30	=30	=30
1F	pas	2d\	sont	2a/	.
.	.	2c\	.	4b\	.
.	.	.	.	2cc\	.
1E	.	1e	.	.	.
.	.	.	.	4b\	.
.	.	.	.	2g/	.
2r	.	2d\	les	1a	-lir
[2e\	dan-	2A/	.	.	.
=31	=31	=31	=31	=31	=31
2e\]	.	1B	pas	2g/	sont
2d\	.	.	.	2f/	.
2.c\	.	1A	.	1a	.
4B\	.	.	.	.	.
2c\	.	2r	.	2g/	les
2d\	.	[2a\	dan-	2d/	.
=32	=32	=32	=32	=32	=32
2.c\	.	2a\]	.	1e	pas
.	.	2g\	.	.	.
4A/	.	.	.	.	.
2B\	.	2.f\	.	1d	.
1A	.	.	.	.	.
.	.	4e\	.	.	.
.	.	2f\	.	2r	.
2G/	.	2g\	.	[2dd\	dan-
=33	=33	=33	=33	=33	=33
1A	.	2.f\	.	2dd\]	.
.	.	.	.	2cc\	.
.	.	4d\	.	.	.
2G/	.	2e\	.	2.b\	.
2F/	.	1d	.	.	.
.	.	.	.	4a/	.
1E	.	.	.	2b\	.
.	.	2c\	.	2cc\	.
=34	=34	=34	=34	=34	=34
2D/	.	1d	.	2.b\	.
1F	.	.	.	.	.
.	.	.	.	4g/	.
.	.	2c\	.	2a/	.
2G/	.	2B\	.	1g	.
1D	-ge-	1A	-ge-	.	.
.	.	.	.	2f#i/	-ge-
=35	=35	=35	=35	=35	=35
!	!	!LO:N:vis=2	!	!LO:N:vis=1	!
0dl	-reux.	0G;l	-reux.	0g;l	-reux.
==	==	==	==	==	==
*-	*-	*-	*-	*-	*-
!!!RDF**kern: l=long note in original notation
!!!RDF**kern: i=editorial accidental
!!!RDF**kern: V=start of tuplet marker
!!!RDF**kern: Z=end of tuplet marker
!!!ENC:	Jesse Rodin (8/16/2012)
!!!END:	2012/08/16/
!!!EED:	Jesse Rodin
!!!EEV:	2012/08/16/
!!!ONB:	Translated from MusicXML and edited on 2012/08/16/ by Craig Sapp
!!muse2ps: C^@{COM}^i2I150v85,85,130Q16
